public/assets/images/icons/red/visibility-visible/elmo.svg

<svg width="16" height="16" xmlns="http://www.w3.org/2000/svg" viewBox="0 0 16 16" shape-rendering="geometricPrecision" fill="#cb1800"><defs><mask id="a"><rect fill="#fff" width="100%" height="100%"/><path d="M12.997.858a4.809 4.809 0 0 0-4.253 2.563 4.81 4.81 0 0 0 8.506 0A4.812 4.812 0 0 0 12.997.858z" fill="#000"/></mask></defs><path d="M12.971 1.607c-1.315 0-2.454.74-3.029 1.825a3.425 3.425 0 0 0 6.058 0 3.43 3.43 0 0 0-3.029-1.825z"/><path mask="url(#a)" d="M12.377 4.153a2.267 2.267 0 0 0-2.102-3.12 2.263 2.263 0 0 0-2.198 1.732 2.246 2.246 0 0 0-2.194-1.764 2.25 2.25 0 0 0-2.25 2.25c0 .279.059.545.15.789-1.492.955-2.447 2.488-2.447 4.504 0 3.564 2.982 6.455 6.664 6.455 3.68 0 6.663-2.891 6.663-6.455.001-1.941-.887-3.432-2.286-4.391zm-4.419-.912c1.12 0 2.029 1.143 2.029 2.553 0 1.408-.909 2.551-2.029 2.551-1.121 0-2.029-1.143-2.029-2.551-.001-1.41.907-2.553 2.029-2.553zm.195 10.412c-4.655 0-4.948-4.637-4.948-4.637-.001 0 2.093.635 4.792.635 2.976 0 5.086-.652 5.087-.652-.001 0-.711 4.654-4.931 4.654z"/></svg>

<?xml version="1.0"?><!DOCTYPE svg PUBLIC "-//W3C//DTD SVG 1.1//EN" "http://www.w3.org/Graphics/SVG/1.1/DTD/svg11.dtd"><svg width="16px" height="16px" xmlns="http://www.w3.org/2000/svg" viewBox="0 0 16 16" shape-rendering="geometricPrecision" fill="#cb1800"><defs><mask id="visibility-visible-path"><rect fill="#fff" width="100%" height="100%"/><path d="M12.997,0.858c-1.845,0-3.446,1.039-4.253,2.563c0.808,1.523,2.408,2.562,4.253,2.562 c1.844,0,3.444-1.039,4.253-2.562C16.441,1.897,14.841,0.858,12.997,0.858z" fill="#000"/></mask></defs><path display="inline" d="M12.971,1.607c-1.315,0-2.454,0.74-3.029,1.825 c0.575,1.085,1.715,1.825,3.029,1.825c1.314,0,2.453-0.74,3.029-1.825C15.424,2.348,14.284,1.607,12.971,1.607z" fill="#cb1800"/><path mask="url(#visibility-visible-path)" d="M12.377,4.153c0.106-0.264,0.167-0.551,0.167-0.85c0-1.256-1.015-2.27-2.269-2.27 c-1.067,0-1.956,0.738-2.198,1.732C7.856,1.757,6.96,1.001,5.883,1.001c-1.242,0-2.25,1.008-2.25,2.25 c0,0.279,0.059,0.545,0.15,0.789C2.291,4.995,1.336,6.528,1.336,8.544c0,3.564,2.982,6.455,6.664,6.455 c3.68,0,6.663-2.891,6.663-6.455C14.664,6.603,13.776,5.112,12.377,4.153z M7.958,3.241c1.12,0,2.029,1.143,2.029,2.553 c0,1.408-0.909,2.551-2.029,2.551c-1.121,0-2.029-1.143-2.029-2.551C5.928,4.384,6.836,3.241,7.958,3.241z M8.153,13.653 c-4.655,0-4.948-4.637-4.948-4.637c-0.001,0,2.093,0.635,4.792,0.635c2.976,0,5.086-0.652,5.087-0.652 C13.083,8.999,12.373,13.653,8.153,13.653z"/></svg>
